resources/svg/paintbrush.svg

<svg xmlns="http://www.w3.org/2000/svg" viewBox="0 0 15 15" fill="currentColor"><path d="M14.8536 0.146458C15.0137 0.306636 15.0462 0.554489 14.9327 0.75053L11.0919 7.38473L7.61529 3.90815L14.2495 0.0672985C14.4455 -0.0461989 14.6934 -0.0137194 14.8536 0.146458Z" fill="black"/><path d="M6.71962 4.4267L4.74949 5.5673C4.61505 5.64513 4.52443 5.78102 4.50424 5.93505C4.48406 6.08907 4.53661 6.24372 4.64645 6.35356L8.64645 10.3536C8.75629 10.4634 8.91095 10.516 9.06497 10.4958C9.21899 10.4756 9.35489 10.385 9.43272 10.2505L10.5733 8.2804L6.71962 4.4267Z" fill="black"/><path d="M0.990239 10.4411C1.36415 9.12348 2.56732 8.21423 3.93696 8.21423H4.00003C5.65688 8.21423 7.00003 9.55738 7.00003 11.2142V11.2671C7.00003 12.8948 5.68055 14.2142 4.0529 14.2142H3.97308C3.58727 14.2142 3.20631 14.1282 2.85797 13.9623C2.35145 13.7211 1.75543 13.764 1.28865 14.0752L0.77738 14.416C0.603104 14.5322 0.374884 14.5275 0.205597 14.4041C0.036311 14.2808 -0.0381583 14.065 0.0190225 13.8635L0.990239 10.4411Z" fill="black"/></svg>

<svg xmlns="http://www.w3.org/2000/svg" viewBox="0 0 15 15" fill="currentColor"><path d="M14.854.146a.5.5 0 01.079.605l-3.841 6.634-3.477-3.477L14.25.068a.5.5 0 01.605.078zM6.72 4.427l-1.97 1.14a.5.5 0 00-.104.787l4 4a.5.5 0 00.787-.103l1.14-1.97L6.72 4.426zM.99 10.441a3.063 3.063 0 012.947-2.227H4a3 3 0 013 3v.053a2.947 2.947 0 01-2.947 2.947h-.08a2.59 2.59 0 01-1.115-.252 1.594 1.594 0 00-1.57.113l-.51.341a.5.5 0 01-.759-.553l.971-3.422z" fill="currentColor"/></svg>
